svg/furkot/icomoon/cart.svg

<svg viewBox="0 0 512 512" xmlns="http://www.w3.org/2000/svg"><path d="m192 464c0 26.512-21.488 48-48 48s-48-21.488-48-48 21.488-48 48-48 48 21.488 48 48zm320 0c0 26.512-21.488 48-48 48s-48-21.488-48-48 21.488-48 48-48 48 21.488 48 48zm0-208v-192h-384c0-17.672-14.328-32-32-32h-96v32h64l24.04 206.024c-14.648 11.728-24.04 29.752-24.04 49.976 0 35.352 28.656 64 64 64h384v-32h-384c-17.672 0-32-14.328-32-32 0-.112.008-.216.008-.328z"/></svg>

<svg xmlns="http://www.w3.org/2000/svg" viewBox="0 0 512 512"><path d="M192 464C192 490.512 170.512 512 144 512S96 490.512 96 464C96 437.488 117.488 416 144 416S192 437.488 192 464ZM512 464C512 490.512 490.512 512 464 512S416 490.512 416 464C416 437.488 437.488 416 464 416S512 437.488 512 464ZM512 256V64H128C128 46.328 113.672 32 96 32H0V64H64L88.04 270.024C73.392 281.752 64 299.776 64 320 64 355.352 92.656 384 128 384H512V352H128C110.328 352 96 337.672 96 320 96 319.888 96.008 319.784 96.008 319.672L512 256Z"/></svg>
